X:1
T:Title
%%score { ( 1 3 ) | 2 }
L:1/8
M:3/4
K:E
V:1 treble nm="Grand Piano"
V:3 treble 
V:2 bass 
V:1
 z2 z2 z[Q:1/4=84] A | AA AE FG | z c/c/ c2 z c | cc cA BA |[M:5/8] z e/e/.e z2 |[M:1/8] e | %6
[M:3/4] ee eB cB | e4 z2 | [GB]3 [GB] [Fc][Bd] |[M:13/16] [Be].E3/2 z/ z/ z/ z/ z/ z/ z | %10
[M:2/4] [ce][cf] [ce][cf] | [ce][Ac] [ce][ce] | [ce][cf] [ce][cf] |[M:3/8] [ce][Ac][ce] | %14
[M:1/8] [ce] | E, |[M:2/4] F,G, A,B, |[M:9/16] CA,/-A,/F,[K:treble][^Bf]3/2 | %18
[M:2/4] [ce][Ac] [ce][Ac] |[M:5/8] [GB]2 [Be]3 |[M:3/8] A,3 |] %21
V:2
 z6 | z6 | z [A,,E,]/[A,,E,]/ [A,,E,]2 z2 | z6 |[M:5/8] z [A,C]/[A,C]/ [A,C]2 z |[M:1/8] z | %6
[M:3/4] z6 | z [E,G,]/[E,G,]/ [E,G,]2 z [A,,E,] | [B,,E,]3 [B,,G,] [B,,A,][B,,A,] | %9
[M:13/16] [E,G,].E,3/2 z/ z/ z/ z/ z/ z/ z |[M:2/4] A,A, A,A, | A,[A,,E,] [A,,A,][A,,A,] | %12
 [A,,A,]A, A,A, |[M:3/8] A,[A,,E,][A,,A,] |[M:1/8] [A,,A,] | z |[M:2/4] z4 | %17
[M:9/16] z3/2 z3/2 [D,A,]3/2 |[M:2/4] [E,A,]E, [E,A,]E, |[M:5/8] E,2 [E,G,]3 |[M:3/8] A,,3 |] %21
V:3
 x6 | x6 | A4 z2 | x6 |[M:5/8] c- c3 z |[M:1/8] x |[M:3/4] x6 | z B/B/ B2 z [Ac] | x6 | %9
[M:13/16] x13/2 |[M:2/4] x4 | x4 | x4 |[M:3/8] x3 |[M:1/8] x | x |[M:2/4] x4 | %17
[M:9/16] x3[K:treble] x3/2 |[M:2/4] x4 |[M:5/8] x5 |[M:3/8] x3 |] %21

